X: 20856
T: Jointure, The
R: jig
M: 6/8
K: Emajor
|:c B2 eeB|efg feB|efg feB|c efe e2|
[1 g {a}g2 f e2|B (3efg fec|BcB ceB|G F2 E E2:|
[2 b g2 f e2|B (3efg fec|BcB ceB|G F2 EEC||
|:B,2 E ECE|FGB B{d}BG|Bce cBG|Bce e e2|
[1 g {a}g2 f e2|B (3efg fec|BcB ceB|G F2 E E2:|
[2 b g2 f e2|B (3efg fec|BcB ceB|G F2 E E2||

